src/assets/svgs/refactor/widgets.svg

<svg fill="none" height="20" viewBox="0 0 20 20" width="20" xmlns="http://www.w3.org/2000/svg"><g fill="#000"><path d="m2.36084 9.08829c-1.30518 0-2.36084-1.05566-2.36084-2.36084v-4.36661c0-1.30518 1.05566-2.36084 2.36084-2.36084h4.3858c1.30518 0 2.36085 1.05566 2.36085 2.36084v4.36661c0 1.30518-1.05567 2.36084-2.36085 2.36084zm0-6.94817c-.12476 0-.22072.09596-.22072.22072v4.36661c0 .12476.09596.22073.22072.22073h4.3858c.12476 0 .22073-.09597.22073-.22073v-4.36661c0-.12476-.09597-.22072-.22073-.22072z"/><path d="m13.2534 9.08829c-1.3052 0-2.3609-1.05566-2.3609-2.36084v-4.36661c0-1.30518 1.0557-2.36084 2.3609-2.36084h4.3858c1.3051 0 2.3608 1.05566 2.3608 2.36084v4.36661c0 1.30518-1.0557 2.36084-2.3608 2.36084zm0-6.94817c-.1248 0-.2208.09596-.2208.22072v4.36661c0 .12476.096.22073.2208.22073h4.3858c.1247 0 .2207-.09597.2207-.22073v-4.36661c0-.12476-.096-.22072-.2207-.22072z"/><path d="m2.36084 20c-1.30518 0-2.36084-1.0556-2.36084-2.3608v-4.3666c0-1.3052 1.05566-2.3609 2.36084-2.3609h4.3858c1.30518 0 2.36085 1.0557 2.36085 2.3609v4.3666c0 1.3052-1.05567 2.3608-2.36085 2.3608zm0-6.9481c-.12476 0-.22072.0959-.22072.2207v4.3666c0 .1247.09596.2207.22072.2207h4.3858c.12476 0 .22073-.096.22073-.2207v-4.3666c0-.1248-.09597-.2207-.22073-.2207z"/><path d="m13.2534 20c-1.3052 0-2.3609-1.0556-2.3609-2.3608v-4.3666c0-1.3052 1.0557-2.3609 2.3609-2.3609h4.3858c1.3051 0 2.3608 1.0557 2.3608 2.3609v1.0557c0 .595-.4798 1.0748-1.0749 1.0748-.595 0-1.0748-.4798-1.0748-1.0748v-1.0557c0-.1248-.096-.2207-.2207-.2207h-4.3858c-.1248 0-.2208.0959-.2208.2207v4.3666c0 .1247.096.2207.2208.2207h4.3858c.1247 0 .2207-.096.2207-.2207v-.691c0-.595.4798-1.0748 1.0748-1.0748.5951 0 1.0749.4798 1.0749 1.0748v.691c0 1.3052-1.0557 2.3608-2.3608 2.3608z"/></g></svg>

<svg width="20" height="20" viewBox="0 0 20 20" fill="none" xmlns="http://www.w3.org/2000/svg">
<path d="M2.36084 9.08829C1.05566 9.08829 0 8.03263 0 6.72745V2.36084C0 1.05566 1.05566 0 2.36084 0H6.74664C8.05182 0 9.10749 1.05566 9.10749 2.36084V6.72745C9.10749 8.03263 8.05182 9.08829 6.74664 9.08829H2.36084ZM2.36084 2.14012C2.23608 2.14012 2.14012 2.23608 2.14012 2.36084V6.72745C2.14012 6.85221 2.23608 6.94818 2.36084 6.94818H6.74664C6.8714 6.94818 6.96737 6.85221 6.96737 6.72745V2.36084C6.96737 2.23608 6.8714 2.14012 6.74664 2.14012H2.36084Z" fill="black"/>
<path d="M13.2534 9.08829C11.9482 9.08829 10.8925 8.03263 10.8925 6.72745V2.36084C10.8925 1.05566 11.9482 0 13.2534 0H17.6392C18.9443 0 20 1.05566 20 2.36084V6.72745C20 8.03263 18.9443 9.08829 17.6392 9.08829H13.2534ZM13.2534 2.14012C13.1286 2.14012 13.0326 2.23608 13.0326 2.36084V6.72745C13.0326 6.85221 13.1286 6.94818 13.2534 6.94818H17.6392C17.7639 6.94818 17.8599 6.85221 17.8599 6.72745V2.36084C17.8599 2.23608 17.7639 2.14012 17.6392 2.14012H13.2534Z" fill="black"/>
<path d="M2.36084 20C1.05566 20 0 18.9444 0 17.6392V13.2726C0 11.9674 1.05566 10.9117 2.36084 10.9117H6.74664C8.05182 10.9117 9.10749 11.9674 9.10749 13.2726V17.6392C9.10749 18.9444 8.05182 20 6.74664 20H2.36084ZM2.36084 13.0519C2.23608 13.0519 2.14012 13.1478 2.14012 13.2726V17.6392C2.14012 17.7639 2.23608 17.8599 2.36084 17.8599H6.74664C6.8714 17.8599 6.96737 17.7639 6.96737 17.6392V13.2726C6.96737 13.1478 6.8714 13.0519 6.74664 13.0519H2.36084Z" fill="black"/>
<path d="M13.2534 20C11.9482 20 10.8925 18.9444 10.8925 17.6392V13.2726C10.8925 11.9674 11.9482 10.9117 13.2534 10.9117H17.6392C18.9443 10.9117 20 11.9674 20 13.2726V14.3283C20 14.9233 19.5202 15.4031 18.9251 15.4031C18.3301 15.4031 17.8503 14.9233 17.8503 14.3283V13.2726C17.8503 13.1478 17.7543 13.0519 17.6296 13.0519H13.2438C13.119 13.0519 13.023 13.1478 13.023 13.2726V17.6392C13.023 17.7639 13.119 17.8599 13.2438 17.8599H17.6296C17.7543 17.8599 17.8503 17.7639 17.8503 17.6392V16.9482C17.8503 16.3532 18.3301 15.8734 18.9251 15.8734C19.5202 15.8734 20 16.3532 20 16.9482V17.6392C20 18.9444 18.9443 20 17.6392 20H13.2534Z" fill="black"/>
</svg>
